svgs/tuya_smart.svg

<svg width="24" height="24" viewBox="0 0 24 24" fill="none" xmlns="http://www.w3.org/2000/svg">
<path d="M7.44999 2.974C6.46399 2.974 5.66599 3.772 5.66599 4.758V7.018H5.12999C4.14399 7.018 3.34599 7.81601 3.34599 8.80201C3.34599 9.78801 4.14399 10.586 5.12999 10.586H5.66599V14.66C5.66599 18.592 8.846 21.782 12.774 21.798H14.588C15.574 21.798 16.372 21 16.372 20.014C16.372 19.028 15.574 18.23 14.588 18.23H12.804C10.832 18.23 9.234 16.632 9.234 14.66V10.588H13.22H13.458C14.444 10.588 15.004 9.79001 15.004 8.80401C15.004 7.81801 14.204 7.02 13.22 7.02H9.234V4.76C9.234 3.772 8.43599 2.974 7.44999 2.974Z" fill="black"/>
<path d="M15.302 5.77C16.288 5.77 17.086 6.57 17.086 7.554C17.086 7.882 17.352 8.148 17.68 8.148C18.008 8.148 18.274 7.882 18.274 7.554C18.274 5.912 16.942 4.58 15.3 4.58C14.972 4.58 14.706 4.846 14.706 5.174C14.706 5.502 14.972 5.77 15.302 5.77Z" fill="black"/>
<path d="M15.302 2.2C14.974 2.2 14.708 2.466 14.708 2.794C14.708 3.122 14.974 3.388 15.302 3.388C17.602 3.388 19.466 5.252 19.466 7.552C19.466 7.88 19.732 8.146 20.06 8.146C20.388 8.146 20.654 7.88 20.654 7.552C20.654 4.596 18.258 2.2 15.302 2.2Z" fill="black"/>
</svg>

<svg xmlns="http://www.w3.org/2000/svg" width="24" height="24" fill="none" viewBox="0 0 24 24"><path fill="#000" d="M7.45 2.974c-.986 0-1.784.798-1.784 1.784v2.26H5.13a1.783 1.783 0 1 0 0 3.568h.536v4.074a7.138 7.138 0 0 0 7.108 7.138h1.814a1.783 1.783 0 1 0 0-3.568h-1.784a3.57 3.57 0 0 1-3.57-3.57v-4.072h4.224c.986 0 1.546-.798 1.546-1.784s-.8-1.784-1.784-1.784H9.234V4.76c0-.988-.798-1.786-1.784-1.786m7.852 2.796c.986 0 1.784.8 1.784 1.784a.594.594 0 0 0 1.188 0A2.975 2.975 0 0 0 15.3 4.58a.594.594 0 1 0 .002 1.19"/><path fill="#000" d="M15.302 2.2a.594.594 0 0 0 0 1.188c2.3 0 4.164 1.864 4.164 4.164a.594.594 0 0 0 1.188 0A5.352 5.352 0 0 0 15.302 2.2"/></svg>
